lib/assets/icons/svg/outlined-navigation-directionright.svg

<svg xmlns="http://www.w3.org/2000/svg" viewBox="0 0 24 24"><path d="M19.654 12.494H5.534l6.68 6.68a.51.51 0 0 1 0 .71.54.54 0 0 1-.35.14.545.545 0 0 1-.36-.14l-7.51-7.52a.503.503 0 0 1-.148-.365.503.503 0 0 1 .148-.365l7.51-7.51a.5.5 0 0 1 .71.7l-6.652 6.67h14.092a.5.5 0 0 1 0 1z"/></svg>

<svg viewBox="0 0 24 24" xmlns="http://www.w3.org/2000/svg">
  <path  d="M 19.654 12.494 C 19.65 12.494 9.07 12.494 5.534 12.494 L 12.214 19.174 C 12.406 19.372 12.406 19.686 12.214 19.884 C 12.118 19.971 11.994 20.021 11.864 20.024 C 11.731 20.023 11.603 19.973 11.504 19.884 L 3.994 12.364 C 3.893 12.263 3.844 12.131 3.846 11.999 C 3.844 11.867 3.893 11.735 3.994 11.634 L 11.504 4.124 C 11.7 3.927 12.018 3.927 12.214 4.124 C 12.405 4.318 12.405 4.63 12.214 4.824 L 5.562 11.494 L 19.654 11.494 C 19.93 11.494 20.154 11.718 20.154 11.994 C 20.154 12.27 19.93 12.494 19.654 12.494 Z"/>
</svg>
